X: 97
T: Winder Slide
C: Joe LaRose
R: Reel
S: https://trillian.mit.edu/~jc/music/abc/OldTime/reel/WinderSlide1_D.abc
M: C|
L: 1/8
K: D
de|: "D"f2fe f3e | f2 a4 de | fdec dc3 | "G"d3D d3B- |
|    BdB2 A3D | "A"F2 E4 FD | DB,B,3 A,B,3 |1 "D"D3E D2 de:|2 1 "D"D3E D2 AB|]
| BdB2 A3D | "A"F2 E4 FE | "D"DDFF DF3 | A3B A2AB- |
| BdB2 A3D | "A"F2 E4 FE | DB,B,3 A,B,3 | "D"D2ef- fd"A"e2 |1 2 "D"d3D d2 AB :|2 "D"d3D d4 |]

